svgs/duotone/scalpel-line-dashed.svg

<svg xmlns="http://www.w3.org/2000/svg" viewBox="0 0 576 512"><!--! Font Awesome Pro 6.3.0 by @fontawesome - https://fontawesome.com License - https://fontawesome.com/license (Commercial License) Copyright 2023 Fonticons, Inc. --><defs><style>.fa-secondary{opacity:.4}</style></defs><path class="fa-primary" d="M495.2 114.4c26.36-30.88 21.24-78.5-12.49-102.5c-29.23-20.88-70.21-13-93.44 14.25L155.9 293.5c-8.994 10.5-1.498 26.5 12.12 26.5h131.9c9.369 0 18.24-4.125 24.36-11.25L495.2 114.4zM304 480h-64C231.2 480 224 487.2 224 496S231.2 512 240 512h64c8.836 0 16-7.164 16-16S312.8 480 304 480zM432 480h-64c-8.836 0-16 7.164-16 16s7.164 16 16 16h64c8.836 0 16-7.164 16-16S440.8 480 432 480zM560 480h-64c-8.836 0-16 7.164-16 16s7.164 16 16 16h64c8.836 0 16-7.164 16-16S568.8 480 560 480z"/><path class="fa-secondary" d="M288 320v8c0 38.38-15.72 76.63-47.81 102.4c-.2559 .125-.3828 .25-.6387 .5C174.1 482.9 88.97 512.1 0 512l179.1-192H288z"/></svg>

<svg xmlns="http://www.w3.org/2000/svg" viewBox="0 0 576 512"><!-- Font Awesome Pro 6.0.0-alpha2 by @fontawesome - https://fontawesome.com License - https://fontawesome.com/license (Commercial License) --><defs><style>.fa-secondary{opacity:.4}</style></defs><path d="M288 320V328C288 366.375 272.277 404.625 240.191 430.375C239.936 430.5 239.809 430.625 239.553 430.875C174.104 482.875 88.969 512.125 0 512L179.984 320H288Z" class="fa-secondary"/><path d="M495.231 114.367C521.59 83.49 516.467 35.863 482.739 11.861C453.506 -9.014 412.532 -1.139 389.297 26.113L155.922 293.498C146.928 304 154.424 320 168.042 320H299.958C309.327 320 318.196 315.875 324.317 308.75L495.231 114.367ZM304.001 480H240.001C231.165 480 224.001 487.164 224.001 496S231.165 512 240.001 512H304.001C312.836 512 320.001 504.836 320.001 496S312.836 480 304.001 480ZM432.001 480H368.001C359.165 480 352.001 487.164 352.001 496S359.165 512 368.001 512H432.001C440.836 512 448.001 504.836 448.001 496S440.836 480 432.001 480ZM560.001 480H496.001C487.165 480 480.001 487.164 480.001 496S487.165 512 496.001 512H560.001C568.836 512 576.001 504.836 576.001 496S568.836 480 560.001 480Z" class="fa-primary"/></svg>
